src/dsmComponents/Icons/steering-wheel-20px.svg

<?xml version="1.0" encoding="UTF-8"?>
<svg width="18px" height="18px" viewBox="0 0 18 18" version="1.1" xmlns="http://www.w3.org/2000/svg" xmlns:xlink="http://www.w3.org/1999/xlink">
    <!-- Generator: Sketch 60 (88103) - https://sketch.com -->
    <title>steering-wheel-20px</title>
    <desc>Created with Sketch.</desc>
    <defs>
        <path d="M8.33333333,0 C3.73096042,0 0,3.73096042 0,8.33333333 C0,12.9357062 3.73096042,16.6666667 8.33333333,16.6666667 C12.9357062,16.6666667 16.6666667,12.9357062 16.6666667,8.33333333 C16.6666667,3.73096042 12.9357062,0 8.33333333,0 Z M8.33333333,1.44927536 C11.5762265,1.44998807 14.3788799,3.71384386 15.0615942,6.88405797 L11.5942029,6.88405797 C11.1591493,6.84120422 10.7418099,6.68984079 10.3804348,6.44384058 C9.76880825,6.04774276 9.06151014,5.82428663 8.33333333,5.79710145 C7.60515652,5.82428663 6.89785842,6.04774276 6.28623188,6.44384058 C5.92485682,6.68984079 5.50751733,6.84120422 5.07246377,6.88405797 L1.60507246,6.88405797 C2.28778674,3.71384386 5.09044021,1.44998807 8.33333333,1.44927536 Z M8.33333333,9.42028986 C7.73302382,9.42028986 7.24637681,8.93364284 7.24637681,8.33333333 C7.24637681,7.73302382 7.73302382,7.24637681 8.33333333,7.24637681 C8.93364284,7.24637681 9.42028986,7.73302382 9.42028986,8.33333333 C9.42028986,8.93364284 8.93364284,9.42028986 8.33333333,9.42028986 Z M1.60507246,9.7826087 L5.07246377,9.7826087 C5.56195146,9.75094151 6.04136721,9.9316122 6.38821084,10.2784558 C6.73505447,10.6252995 6.91572516,11.1047152 6.88405797,11.5942029 L6.88405797,15.0615942 C4.24081656,14.490539 2.17612767,12.4258501 1.60507246,9.7826087 L1.60507246,9.7826087 Z M9.7826087,15.0615942 L9.7826087,11.5942029 C9.75094151,11.1047152 9.9316122,10.6252995 10.2784558,10.2784558 C10.6252995,9.9316122 11.1047152,9.75094151 11.5942029,9.7826087 L15.0615942,9.7826087 C14.490539,12.4258501 12.4258501,14.490539 9.7826087,15.0615942 Z" id="path-1"></path>
    </defs>
    <g id="Final" stroke="none" stroke-width="1" fill="none" fill-rule="evenodd">
        <g id="All-Nucleo-Icons" transform="translate(-464.000000, -7704.000000)">
            <g id="Solo/Nucleo/20px/steering-wheel-20px" transform="translate(463.000000, 7703.000000)">
                <g id="steering-wheel-20px" transform="translate(1.666667, 1.666667)">
                    <mask id="mask-2" fill="white">
                        <use xlink:href="#path-1"></use>
                    </mask>
                    <use id="Mask" fill="#999999" fill-rule="nonzero" xlink:href="#path-1"></use>
                    <g id="colour/neutral/chia" mask="url(#mask-2)" fill="#737373">
                        <g transform="translate(-18.333333, -19.166667)" id="Colour">
                            <rect x="0" y="0" width="53.3333333" height="53.3333333"></rect>
                        </g>
                    </g>
                </g>
            </g>
        </g>
    </g>
</svg>

<svg width="18" height="18" xmlns="http://www.w3.org/2000/svg" xmlns:xlink="http://www.w3.org/1999/xlink"><defs><path d="M8.333 0a8.333 8.333 0 100 16.667A8.333 8.333 0 008.333 0zm0 1.45a6.884 6.884 0 016.729 5.434h-3.468a2.612 2.612 0 01-1.214-.44 4.043 4.043 0 00-2.047-.647 4.043 4.043 0 00-2.047.647 2.612 2.612 0 01-1.214.44H1.605A6.884 6.884 0 018.333 1.45zm0 7.97a1.087 1.087 0 110-2.174 1.087 1.087 0 010 2.174zm-6.728.363h3.467a1.705 1.705 0 011.812 1.811v3.468a6.89 6.89 0 01-5.279-5.28zm8.178 5.279v-3.468a1.705 1.705 0 011.811-1.811h3.468a6.89 6.89 0 01-5.28 5.279z" id="steering-wheel-20px_svg__a"/></defs><use fill="#737373" xlink:href="#steering-wheel-20px_svg__a" transform="translate(.667 .667)" fill-rule="evenodd"/></svg>
